symbols/web/motorcycle/materialsymbolsrounded/motorcycle_wght300_24px.svg

<svg xmlns="http://www.w3.org/2000/svg" height="24" width="24"><path d="M5.2 18.5q-1.875 0-3.187-1.312Q.7 15.875.7 14q0-1.875 1.313-3.188Q3.325 9.5 5.2 9.5h11.7L14.4 7h-2.45q-.325 0-.537-.213-.213-.212-.213-.537 0-.325.213-.537.212-.213.537-.213h2.7q.175 0 .338.062.162.063.287.213l3.775 3.75q1.8.075 3.025 1.375Q23.3 12.2 23.3 14q0 1.875-1.312 3.188Q20.675 18.5 18.8 18.5q-1.875 0-3.187-1.312Q14.3 15.875 14.3 14q0-.625.213-1.188.212-.562.587-1.037h-.85l-2.45 2.45q-.25.25-.587.388-.338.137-.688.137H9.6q-.25 1.625-1.5 2.688Q6.85 18.5 5.2 18.5ZM18.8 17q1.25 0 2.125-.875T21.8 14q0-1.25-.875-2.125T18.8 11q-1.25 0-2.125.875T15.8 14q0 1.25.875 2.125T18.8 17ZM5.2 17q1.025 0 1.813-.637.787-.638 1.062-1.613H5.95q-.325 0-.538-.213Q5.2 14.325 5.2 14q0-.325.212-.538.213-.212.538-.212h2.125q-.275-.975-1.062-1.613Q6.225 11 5.2 11q-1.25 0-2.125.875T2.2 14q0 1.25.875 2.125T5.2 17Zm4.45-3.75h.85q.05 0 .1-.025l.1-.05L12.875 11H8.45q.5.425.813 1.012.312.588.387 1.238Zm0-2.25h-1.2 4.425H10.5Z"/></svg>

<svg xmlns="http://www.w3.org/2000/svg" height="24" width="24"><path d="M5.2 18.5Q3.325 18.5 2.013 17.188Q0.7 15.875 0.7 14Q0.7 12.125 2.013 10.812Q3.325 9.5 5.2 9.5H16.9L14.4 7H11.95Q11.625 7 11.413 6.787Q11.2 6.575 11.2 6.25Q11.2 5.925 11.413 5.713Q11.625 5.5 11.95 5.5H14.65Q14.825 5.5 14.988 5.562Q15.15 5.625 15.275 5.775L19.05 9.525Q20.85 9.6 22.075 10.9Q23.3 12.2 23.3 14Q23.3 15.875 21.988 17.188Q20.675 18.5 18.8 18.5Q16.925 18.5 15.613 17.188Q14.3 15.875 14.3 14Q14.3 13.375 14.513 12.812Q14.725 12.25 15.1 11.775H14.25L11.8 14.225Q11.55 14.475 11.213 14.613Q10.875 14.75 10.525 14.75H9.6Q9.35 16.375 8.1 17.438Q6.85 18.5 5.2 18.5ZM18.8 17Q20.05 17 20.925 16.125Q21.8 15.25 21.8 14Q21.8 12.75 20.925 11.875Q20.05 11 18.8 11Q17.55 11 16.675 11.875Q15.8 12.75 15.8 14Q15.8 15.25 16.675 16.125Q17.55 17 18.8 17ZM5.2 17Q6.225 17 7.013 16.363Q7.8 15.725 8.075 14.75H5.95Q5.625 14.75 5.412 14.537Q5.2 14.325 5.2 14Q5.2 13.675 5.412 13.462Q5.625 13.25 5.95 13.25H8.075Q7.8 12.275 7.013 11.637Q6.225 11 5.2 11Q3.95 11 3.075 11.875Q2.2 12.75 2.2 14Q2.2 15.25 3.075 16.125Q3.95 17 5.2 17ZM9.65 13.25H10.5Q10.55 13.25 10.6 13.225Q10.65 13.2 10.7 13.175L12.875 11H8.45Q8.95 11.425 9.263 12.012Q9.575 12.6 9.65 13.25ZM9.65 11Q9.575 11 9.263 11Q8.95 11 8.45 11H12.875H10.7Q10.65 11 10.6 11Q10.55 11 10.5 11Z"/></svg>
